X: 2102
T: Miss Jean Stewart
C:Wm. Morrison
R:Strathspey (8x32)
B:RSCDS 21-2
Z:Anselm Lingnau <anselm@strathspey.org>
M:C
L:1/8
K:A
"A"C<A, [AE]>c "D"[BF]A F2|"A"A<EA>c "E7"e>f "A"e>c|\
"Bm"[dF]>e f/e/d/c/ d/c/B/A/ "D"[F2D2]|"A"[AC]<E"D"[FD]>E "A"[AC]EAc|
"A"C<A, [AE]>c "D"[BF]A F2|"A"A<EA>c "E7"e>f "A"e>c|\
"Bm"[dF]>e f/e/d/c/ d/c/B/A/ "D"[F2D2]|"A"[AC]>B [cGE]>B [AC]<E A<c||
"E"[eBE]>f "A"[eE]c "D"d/c/B/A/ "Bm"[F2D2]|"E"[eE]>f"A"[eE]c [eA]<a [eE]<c|\
"Bm"[dF]>e f/e/d/c/ d/c/B/A/ "D"[F2D2]|"A"[AC]>E"D"[FD]>E "A"[AC]EAc|
"E"[eBE]>f "A"[eE]c "D"d/c/B/A/ "Bm"[F2D2]|"E"[eE]>f"A"[eE]c [eA]<a [eE]<c|\
"Bm"[dF]>e f/e/d/c/ d/c/B/A/ "D"[F2D2]|"A"[AC]>B [cGE]>B [AC]<E A<c|]
%%center Book21/2102-My_Only_Jo_and_Dearie_O-AL.abc

%%sep 1 1 500
%%sep 1 1 500

